!!!!SEGMENT: pl-wumfc--r293_paderewski-ignacy-jan--dans-la-foret.krn
!!!cenid: 18xx:3212
!!!COM: Paderewski, Ignacy Jan
!!!COM-rismID: pe30029943
!!!CDT: 1860/11/18-1941/06/29
!!!CNT: Polish
!!!OTL: Dans la forêt
!!!PDT:
!!!AGN:
!!!SMS-siglum: PL-Wumfc
!!!SMS-shelfmark: R293
!!!SMS-shelfwork: W
!!!SMS-variant:
!!!SMS-altvar:
!!!NIFC-rismSourceID: 1001159477
!!!NIFC-rismChildID: 1001159477
!!!NIFC-islandoraID: pl-wumfc:481
!!!URL-pdf-islandora: https://repozytorium.nifc.pl/islandora/object/pl-wumfc%3A481/datastream/PDF/view
!!!URL-scan: https://polish.musicsources.pl/pl/lokalizacje/galeria/rekopisy/4713 @EN{Scan on Polish Music Sources Website} @PL{Skany w portalu Dziedzictwo Muzyki Polskiej w otwartym dostępie}
!!!ONB-nifc:
!!!AIN: 2 piano 1 vox
!!!key: a
**kern	**kern	**dynam	**kern	**text
*part3	*part2	*part2	*part1	*part1
*group2	*group2	*	*group1	*group1
*staff3	*staff2	*	*staff1	*staff1
*I"[Fortepian]	*I"[Fortepian]	*	*I"[Głos]	*
*I'	*I'	*	*I'	*
*Ipiano	*Ipiano	*	*Ivox	*
*ICklav	*ICklav	*	*ICvox	*
*IGacmp	*IGacmp	*	*IGsolo	*
*clefF4	*clefG2	*	*clefF4	*
*k[]	*k[]	*	*k[]	*
*a:	*a:	*	*a:	*
*M2/4	*M2/4	*	*M2/4	*
=1	=1	=1	=1	=1
*ped	*	*	*	*
!	!	!LO:DY:t=p.	!LO:TX:a:B:t=Allegretto non troppo.	!
4r	4r	p	2r	.
8r	8r	.	.	.
!LO:TX:t=P:problem=cross-measure beam	!LO:TX:t=P:problem=cross-measure beam	!	!	!
(16e\LL	(>16ee/LL	.	.	.
16E\JJ	16e/JJ	.	.	.
=2	=2	=2	=2	=2
8e\J)	8ee/J)	.	2r	.
(16e\LL	(>16ee/LL	.	.	.
16E\JJ	16e/JJ	.	.	.
8e\)	8ee/)	.	.	.
(16e\LL	(>16ee/LL	.	.	.
16E\JJ	16e/JJ	.	.	.
=3	=3	=3	=3	=3
4e\)	4ee/)	.	4r	.
4r	4r	.	8r	.
.	.	.	8E\	Dans
=4	=4	=4	=4	=4
2r	2r	.	8A\	la
.	.	.	8A\	fo-
*Xped	*	*	*	*
.	.	.	8.G\	-rêt
.	.	.	16G\	chauve
=5	=5	=5	=5	=5
4r	4r	.	8F\	et
.	.	.	(<8qG/	.
.	.	.	8F\)	ro-
8r	8r	.	[4E\	-uillé-
*ped	*	*	*	*
(16e\LL	(>16ee/LL	p	.	.
16E\JJ	16e/JJ	.	.	.
=6	=6	=6	=6	=6
8e\)	8ee/)	.	4E\]	.
(16e\LL	(>16ee/LL	.	.	.
16E\JJ	16e/JJ	.	.	.
8e\)	8ee/)	.	8E\	-e
(16e\LL	(>16ee/LL	.	8r	.
16E\JJ	16e/JJ	.	.	.
!!linebreak:original
=7	=7	=7	=7	=7
*Xped	*	*	*	*
8e\)	8ee/)	.	2r	.
8r	8r	.	.	.
8r	8r	.	.	.
(8G\	(>8g/	.	.	.
=8	=8	=8	=8	=8
*	*^	*	*	*
4c 4G 4C<\)	8cc~/L)	4g 4e-X\	.	8r	.
.	8cc~/J	.	.	16G\	Il
.	.	.	.	16A\	ne
!	!	!	!LO:SIC:v:n=3:s=4B-\	!	!
4G 4D 4GG<\	8b-~X/L	4g 4d 4B\	.	8B-X\	res-
.	8b-~/J	.	.	8B-\	-te
*	*v	*v	*	*	*
=9	=9	=9	=9	=9
4F 4D\	4a 4f 4d 4A/	.	8A\	plus
.	.	.	16G\	au
.	.	.	16F\	ra-
4F 4FF<\	4a 4f 4c 4A/	.	8A\	-meau
.	.	.	16Bn\	Qu'u-
.	.	.	16c\	-ne
=10	=10	=10	=10	=10
4f>:: 4B>::\	4aa: 4dd:: 4a::/	sf	8d\	pau-
.	.	.	8d\	-vre
*	*ped	*	*	*
!	!	!LO:DY:a:t=p.	!	!
[4E [4BB [4EE\	[4g#X [>4d [4G#X/	p	8.G#X\	feuille
.	.	.	16G#\	ou-
=11	=11	=11	=11	=11
8E] 8BB] 8EE\]	8g#] 8d] 8G#/]	.	[2d\	-blié-
!	!	!LO:DY:t=p.	!	!
(16e\LL	(16eee/LL	p	.	.
16E\JJ	16ee/JJ	.	.	.
8e\)	8eee/)	.	.	.
(16e\LL	(<16eee/LL	.	.	.
16E\JJ	16ee/JJ	.	.	.
!!linebreak:original
=12	=12	=12	=12	=12
!	!LO:TX:t=P:problem=zakończenie łuku na górze	!	!	!
8e\)	8eee\)	.	4d\]	.
*	*Xped	*	*	*
8r	8r	.	.	.
8r	8r	.	8E\	-e
!	!	!LO:HP:t=cres.	!	!
(16A\LL	(>16a/LL	<	8r	.
16B\JJ	16b/JJ	.	.	.
=13	=13	=13	=13	=13
*	*^	*	*	*
4c 4A 4D\)	8cc~/L)	4f\	.	2r	.
.	8cc~/J	.	.	.	.
4A 4C\	8a~/L	4e\	.	.	.
.	8a~/J	.	.	.	.
*	*v	*v	*	*	*
=14	=14	=14	=14	=14
(<2A 2D\	(>2cc 2f#X 2c/	.	4r	.
.	.	.	8c\	Rien
.	.	.	16c\	qu'u-
.	.	.	16c\	-ne
=15	=15	=15	=15	=15
2A 2C\)	2a 2e/)	.	4A\	feuil-
.	.	.	8A\	-le....
.	.	.	8r	.
=16	=16	=16	=16	=16
!	!	!LO:DY:t=p.	!	!
4G 4BB\	4b 4e/	p	8r	.
.	.	.	8G\	et
4A 4F#X 4BB\	4b 4d#X 4B/	.	8F#X\	qu'un
.	.	.	8F#\	oi-
!!linebreak:original
=17	=17	=17	=17	=17
!	!	!LO:DY:a:t=p.	!	!
*	*ped	*	*	*
8G 8BB 8EE\	8b 8e 8B/	p	[2E\	-seau
8r	(16bb/LL	.	.	.
.	16b/JJ	.	.	.
[<4B\	8bb/)	.	.	.
.	(16bb/LL	<	.	.
.	16b/JJ	[[	.	.
=18	=18	=18	=18	=18
4g 4B^\]	8bb/)	.	4E\]	.
*	*Xped	*	*	*
.	8r	.	.	.
!LO:N:vis=2	!	!	!	!
4r	8fnL 8A~>/	.	4r	.
.	8fJ 8A~>/	.	.	.
=19	=19	=19	=19	=19
*	*ped	*	*	*
4EEE\	8e 8G~>/	.	2r	.
.	(16bb/LL	.	.	.
.	16b/JJ	.	.	.
[<4B\	8bb/)	.	.	.
.	(16bb/LL	<	.	.
.	16b/JJ	.	.	.
=20	=20	=20	=20	=20
4g 4B\]	8bb/)	[	2r	.
*	*Xped	*	*	*
.	8r	.	.	.
4r	8fnL 8A~>/	.	.	.
.	8fJ 8A~>/	.	.	.
=21	=21	=21	=21	=21
[4EEE\	8e 8G~>/	<	2r	.
.	(>16e/LL	.	.	.
.	16E</JJ	.	.	.
8EEE\]	8e/)	.	.	.
8r	(>16e/LL	.	.	.
.	16E</JJ)	[	.	.
=22	=22	=22	=22	=22
*	*ped	*	*	*
!LO:TX:b:B:t=Piu mosso	!	!LO:DY:a	!LO:TX:a:B:t=Piu mosso	!
[<2C [2CC\	[2e [>2B-X [2E</	f	4r	.
.	.	.	8G\	Il
.	.	.	8A\	ne
!!pagebreak:original
=23	=23	=23	=23	=23
!	!LO:TX:t=P:problem=łuk górą	!	!	!
4C] 4CC\]	4e] 4B-] 4E</]	.	8B-X\	res-
.	.	.	8B-\	-te
4BB-X 4BBB-X\	4e 4d-X 4E</	.	8A\	plus
.	.	.	16G\	dans
.	.	.	16G\	mon
=24	=24	=24	=24	=24
!	!	!LO:HP:t=cres	!	!
(<4AA 4AAA\	4f 4c 4F</	<	(4F\	â-
4AA-X 4AAA-X\	4f 4Bn 4F</	.	8E\)	.
.	.	.	8D\	-me
=25	=25	=25	=25	=25
2GG 2GGG\)	2f 2d 2B-X 2F</	.	8r	.
!	!	!	!LO:TX:a:i:t=con passione	!
.	.	.	8D\	Qu'un
.	.	.	8.c\	seul
.	.	.	16c\	a-
=26	=26	=26	=26	=26
!	!LO:SIC:v:n=3:s=2B-	!LO:HP:b=2	!	!
(<4GG 4GGG\	[2e 2c 2B [2E</	<	2c\	-mour
4GG-X 4GGG-X\	.	[	.	.
!!linebreak:original
=27	=27	=27	=27	=27
*	*^	*	*	*
!LO:TX:t=P:problem=brak zakończenia łuku	!	!	!	!	!
[2FF [2FFF\	4e] 4E</]	2A\	<	8r	.
.	.	.	.	8A\	pour
.	[4e-X [4E-<X/	.	.	8G\	y
.	.	.	[[	8F\	chan-
=28	=28	=28	=28	=28	=28
2FF] 2FFF\])	8e-]L 8E-</]	2A\	.	[2F\	-ter
.	8d 8D</	.	.	.	.
.	8d-X 8D-<X/	.	.	.	.
.	8cJ 8C</	.	.	.	.
*	*v	*v	*	*	*
=29	=29	=29	=29	=29
*ped	*	*	*	*
!	!	!	!LO:TX:a:B:t=piu vivo ed ap(p)assionato.	!
8FF 8FFF\	8c 8A 8C</	.	4F\]	.
!	!	!LO:HP:t=crescendo	!	!
(16GLL 16E-X\	8r	<	.	.
16FF\JJ	.	.	.	.
!	!	!LO:DY:a	!	!
4G 4E-\)	8ccL 8g 8c/	f	4r	.
*Xped	*	*	*	*
.	8ddJ 8d/	.	.	.
=30	=30	=30	=30	=30
*ped	*	*	*	*
8FF 8FFF\	8ee-XL 8g 8e-X/	.	4r	.
(16GLL 16E-X\	8dd 8d/	.	.	.
16FF\JJ	.	.	.	.
*Xped	*	*	*	*
4G 4E-\)	8cc 8c/	.	8c\	Mais
.	8b-XJ 8B-X/	.	8d\	le
=31	=31	=31	=31	=31
8FF\L	8aL 8e-X 8A/	.	8e-X\	vent
(16FF\L	8g 8e- 8G/	.	8e-\	d'au-
16FFF\JJ	.	.	.	.
4FF\)	8f 8A< 8F</	.	8d\	-to-
.	8e-XJ 8E-<X/	.	16c\	-mne
.	.	.	16c\	qui
!!linebreak:original
=32	=32	=32	=32	=32
8FF\L	4d 4B-<X 4D</	.	(4B-X\	bra-
(16FF\L	.	.	.	.
16FFF\JJ	.	.	.	.
8FF\L)	4d-X 4B-< 4En< 4D-<X/	.	8A\)	.
(16FF\L	.	.	8G\	-me
16FFF\JJ	.	.	.	.
=33	=33	=33	=33	=33
8FF\L)	2c 2A< 2E-X< 2C</	>]	8r	.
(16FF\L	.	.	4F\	Ne
16FFF\JJ	.	.	.	.
4FF\)	.	.	.	.
.	.	.	8F\	per-
=34	=34	=34	=34	=34
[2BBB\	[2B< [2A< [>2D< [<2BB</	.	4.f\	-met
.	.	.	8en\	pas
=35	=35	=35	=35	=35
4BBB\]	4B<] 4A<] 4D<] 4BB</]	.	8r	.
!	!	!	!LO:TX:a:i:t=calando	!
.	.	.	8d\	de
4r	4r<	.	8c\	l'é-
.	.	.	8Bn\	-cou-
=36	=36	=36	=36	=36
*ped	*	*	*	*
!	!	!LO:DY:b:t=p.	!	!
8EE 8EEE\	8B< 8G#X< 8E< 8BB</	p	[2B\	-ter
!	!	!LO:HP:t=cres_	!	!
!	!	!LO:DY:a	!	!
(8B>\L	(<16eee/LL	p <	.	.
.	16ee/JJ	.	.	.
8b>\	8eee/L)	.	.	.
8a>\J	(<16eee/L	.	.	.
.	16ee/JJ	.	.	.
*Xped	*	*	*	*
!!pagebreak:original
=37	=37	=37	=37	=37
8gn>\L	8eee/L)	.	2B\_	.
8fn>\J	(<16eee/L	.	.	.
.	16ee/JJ	.	.	.
4e>\)	4eee/)	.	.	.
=38	=38	=38	=38	=38
8EE 8EEE\	8B< 8G#X< 8E< 8BB</	.	4B\]	.
!	!	!LO:DY:t=pp.	!	!
(<8B>\L	(<16eee/LL	pp	.	.
.	16ee/J	.	.	.
!LO:TX:a:i:t=rallent.	!	!	!	!
8b>\	8eee/J)	.	4r	.
8a>\J	(<16eee/LL	.	.	.
.	16ee/JJ	.	.	.
=39	=39	=39	=39	=39
8gn>\L	8eee/L)	.	4r	.
8fn>\J	(<16eee/L	.	.	.
.	16ee/JJ	.	.	.
4e>\)	4eee/)	.	8r	.
!	!	!	!LO:TX:a:B:t=Tempo I°	!
.	.	.	8E\	L'oi-
=40	=40	=40	=40	=40
8cc> 8a> 8e>\	8eee/L	.	8A\	-seau
8r>	(<16eee/L	.	8A\	s'en
.	16ee/JJ	.	.	.
8ee> 8b> 8e>\	8eee/)	.	8G\	va
8r>	8r	.	8G\	la
=41	=41	=41	=41	=41
8dd> 8a> 8e>\	8eee/L	.	8F\	feuil-
8r>	(<16eee/L	.	8F\	-le
.	16ee/JJ	.	.	.
8cc> 8a> 8e>\	8eee/)	.	8A\	tom-
8r>	8r	.	16A\	-be
.	.	.	16r	.
!!pagebreak:original
=42	=42	=42	=42	=42
*ped	*	*	*	*
!	!	!LO:DY:b:t=sf.	!	!
2AA 2AAA\	2c#X< 2G< 2E<^/	sf	8r	.
.	.	.	8G\	L'a-
.	.	.	8.A\	-mour
.	.	.	16B-X\	s'é-
=43	=43	=43	=43	=43
2b-X>: 2g>: 2c#X>:>\	8rddd	sf	2c#X\	-teint,
.	(16eee/LL	.	.	.
.	16ee/JJ	.	.	.
.	4eee/)	.	.	.
*Xped	*	*	*	*
=44	=44	=44	=44	=44
*ped	*	*	*	*
2AA 2AAA\	2cn< 2A< 2F<^/	.	8r	.
.	.	.	8Fn\	car
.	.	.	8A\	c'est
.	.	.	8B\	l'hi-
=45	=45	=45	=45	=45
2a>: 2f>: 2c>: 2A>:^>\	8rddd	sf	2cn\	-ver
.	(16eee-X/LL	.	.	.
!	!	!	!LO:TX:a:i:t=rit	!
.	16ee-X/JJ	.	.	.
.	4eee-/)	.	.	.
*Xped	*	*	*	*
=46	=46	=46	=46	=46
!	!	!	!LO:TX:t=P:problem=klamra łukowa i 3	!
*	*ped	*	*Xbrackettup	*
2a> 2f> 2d> 2B>\	8ddd/L	.	12B\	Pe-
.	.	.	12B\	-tit
.	(<16ddd/L	.	.	.
.	.	.	12B\	oi-
.	16dd/JJ	.	.	.
!	!LO:TX:b:i:t=leggiero	!	!	!
.	8ff'/L)	.	8.d\	-seau
!	!LO:TX:t=P:problem=pięciola oznaczona 5	!	!	!
.	(40ff/LL	.	.	.
.	40gg/	.	.	.
.	40ff/	.	.	.
.	.	.	16d\	viens
.	40gg/	.	.	.
.	40ff/JJJ	.	.	.
*	*Xped	*	*	*
!!pagebreak:original
=47	=47	=47	=47	=47
4a> 4e> 4c>\	8ee'>/L)	.	8c\	sur
!	!LO:TUP:b	!	!	!
.	(<40ee/LL	.	8c\	ma
.	40ff/	.	.	.
.	40ee/	.	.	.
.	40ff/	.	.	.
.	40ee/JJJ	.	.	.
4d 4B 4E\	8gg#X'>/L)	.	8B\	tom-
*	*Xtuplet	*	*	*
.	(40gg#/LL	.	8B\	-be
.	40aa/	.	.	.
.	40gg#/	.	.	.
.	40aa/	.	.	.
.	40gg#/JJJ	.	.	.
=48	=48	=48	=48	=48
4c 4A 4F\	8aa'>/L)	.	8r	.
.	(40aa/LL	.	8A\	Chan-
.	40bb/	.	.	.
.	40aa/	.	.	.
.	40bb/	.	.	.
.	40aa/JJJ	.	.	.
*ped	*tuplet	*	*	*
8e 8G 8C\	8eee'>/L)	.	[4G\	-ter
!	!LO:TUP:b	!	!	!
(16ee>\LL	(<48eee/LL	<	.	.
.	48fff/	.	.	.
.	48eee/	.	.	.
16e>\JJ	48fff/	.	.	.
.	48eee/	.	.	.
.	48fff/JJJ	.	.	.
=49	=49	=49	=49	=49
8ee>\L)	8eee'>/L)	[	4G\]	.
*	*tuplet	*	*	*
!	!LO:TUP:b	!	!	!
(16ee>\L	(<48eee/LL	.	.	.
.	48fff/	.	.	.
.	48eee/	.	.	.
16e>\JJ	48fff/	>	.	.
.	48eee/	.	.	.
.	48fff/JJJ	.	.	.
4ee>\)	4eee/)	]	4r	.
*Xped	*	*	*	*
=50	=50	=50	=50	=50
4c 4A-X 4F\	8aa-X/L	.	8.A-X\	Viens
!	!LO:TUP:b	!	!	!
.	(40aa-/LL	.	.	.
.	40bb-X/	.	.	.
.	40aa-/	<	.	.
.	.	.	16A-\	chan-
.	40bb-/	.	.	.
.	40aa-/JJJ	.	.	.
*ped	*	*	*	*
8e 8G 8C\	8eee'>/L)	.	[4e\	-ter
!	!LO:TUP:b	!	!	!
(16ee>\LL	(<48eee/LL	[	.	.
.	48fff/	.	.	.
.	48eee/	.	.	.
16e>\JJ	48fff/	.	.	.
.	48eee/	.	.	.
.	48fff/JJJ	.	.	.
!!linebreak:original
=51	=51	=51	=51	=51
8ee>\L)	8eee'/L)	.	2e;\_	.
!	!LO:TUP:b	!	!	!
(<16ee>\L	(<48eee/LL	.	.	.
.	48fff/	.	.	.
.	48eee/	.	.	.
16e>\JJ	48fff/	>	.	.
.	48eee/	]	.	.
.	48fff/JJJ	.	.	.
4ee>;<\)	[>4eee;/)	.	.	.
*Xped	*	*	*	*
=52	=52	=52	=52	=52
*ped	*	*	*	*
4e 4E 4GG\	8eee/L]	.	16e\]	.
.	.	.	16r	.
!	!	!	!LO:TX:a:i:t=un poco animato	!
.	(16eee/L	.	8d\	quand
.	16ee/JJ	.	.	.
4AAA\	8eee/L)	.	8c#X\	l'ar-
.	(16eee/L	.	8c#\	-bre
.	16ee/JJ	.	.	.
=53	=53	=53	=53	=53
*ped	*	*	*	*
4e 4E\	8eee/L)	.	8B\	se-
.	(16eee/L	.	8B\	-ra
.	16ee/JJ	.	.	.
4AAA\	[>4eee/)	.	4A\	vert
=54	=54	=54	=54	=54
*^	*	*	*	*
4e 4d/	8F#X\L	8eee/L]	.	8r	.
.	8G#X\J	(16eee/L	.	8d\	quand
.	.	16ee/JJ	.	.	.
4e 4c#X 4A\	4ryy	8eee/)	.	8c#X\	l'ar-
.	.	8r	.	8c#\	-bre
*v	*v	*	*	*	*
!!linebreak:original
=55	=55	=55	=55	=55
8F#XL 8D\	8eee/L	.	(16B\LL	se-
.	.	.	16c#X\JJ)	.
8G#XJ 8E\	(16eee/L	.	8B\	-ra
.	16ee/JJ	.	.	.
*ped	*	*	*	*
[4A [4E [4C#X [4AA\	[>4eee/)	.	[4A\	vert
=56	=56	=56	=56	=56
4A] 4E] 4C#] 4AA\]	8eee/L]	.	2A\_	.
.	(16eee/L	.	.	.
.	16ee/JJ	.	.	.
8e\L	8eee/L)	.	.	.
(16e\L	(16eee/L	.	.	.
16E\JJ	16ee/JJ	.	.	.
=57	=57	=57	=57	=57
*Xped	*	*	*	*
8e\)	8eee/)	.	4A\]	.
8r	8r	.	.	.
4F#X 4FF#X\	4a 4f#X 4c#X 4A/	p	4r	.
=58	=58	=58	=58	=58
*ped	*	*	*	*
4AAA\	8r	.	2r	.
.	(16eee/LL	.	.	.
.	16ee/JJ	.	.	.
8e\L	8eee/L)	.	.	.
(16e\L	(16eee/L	.	.	.
16E\JJ	16ee/JJ	.	.	.
=59	=59	=59	=59	=59
8e\)	8eee/)	.	2r	.
8r	8r	.	.	.
4AA 4AAA\	4c#X< 4A< 4E</	.	.	.
=60	=60	=60	=60	=60
4AA 4AAA\	4c#X< 4A< 4E</	.	2r	.
*Xped	*	*	*	*
4r	4r	.	.	.
==	==	==	==	==
*-	*-	*-	*-	*-
!!!system-decoration: g1{g2}
!!!RDF**kern: > = above
!!!RDF**kern: < = below
!!!ENC: Katarzyna Serwa
!!!END: 2021-11-17
!!!ENC: Anastazja Marusiak
!!!END: 2021-11-13
!!!YEC: Copyright 2022 Narodowy Instytut Fryderyka Chopina (https://polishscores.org)
!!!YEM: License CC-BY-4.0 (https://creativecommons.org/licenses/by/4.0)
